X:86
T: Kihajtottam Virág ökröm a rétre...
M: 4/4
L: 1/4
K: F
Ggaa/g/ | g<f a2 | 
a a/g/ g/f/f/_e/ | d c B2 | 
fggd | f/_e/d/c/ | d<B F2 | 
f/g/g/d/ f/_e/d/c/ | G<G G2 | 

